packages/core/src/svgs/cxo.svg

<svg width="24" height="24" viewBox="0 0 24 24" fill="none" xmlns="http://www.w3.org/2000/svg">
<g clip-path="url(#clip0_31_8969)">
<path d="M0 0H24V24H0V0Z" fill="#192969"/>
<path d="M18.8572 6H17.5715V7.28571H18.8572V6ZM17.5715 7.28571H16.2841V8.57143H17.5715V7.28571ZM18.8572 15.4294H17.5715V16.7151H18.8572V15.4294ZM17.5715 13.2857H16.2858V14.5714H17.5715V13.2857ZM15.0001 10.7147H13.7144V12.0004H15.0001V10.7147ZM16.2858 9.429H15.0001V10.7147H16.2858V9.429ZM18.8572 10.7147H17.5715V12.0004H18.8572V10.7147Z" fill="#8DDB2E"/>
<path d="M16.2859 17.1429V15.8571H15.0002V17.1429H13.7145V15.8571H15.0002V13.2857H13.7145V12H12.4288V10.7143H13.7145V9.42857H12.4288V8.14286H13.7145V9.42857H15.0002V7.28571H16.2859V6H12.8574L10.9288 9.42857L8.7645 6H5.14307L9.00021 12.2143L5.14307 18.4286H8.68821L10.9288 14.5714L12.8574 18.4286H17.5716V17.1429H16.2859ZM12.4288 14.5714V13.2857H11.1431V12L9.85735 12.0047V10.7143H11.1431V12H12.4288V13.2857H13.7145V14.5714H12.4288Z" fill="#8DDB2E"/>
</g>
<defs>
<clipPath id="clip0_31_8969">
<rect width="24" height="24" fill="white"/>
</clipPath>
</defs>
</svg>

<svg xmlns="http://www.w3.org/2000/svg" width="24" height="24" fill="none" viewBox="0 0 24 24"><g clip-path="url(#a)"><path fill="#192969" d="M0 0h24v24H0z"/><path fill="#8DDB2E" d="M18.857 6h-1.285v1.286h1.285zm-1.285 1.286h-1.288V8.57h1.288zm1.285 8.143h-1.285v1.286h1.285zm-1.285-2.143h-1.286v1.285h1.285zM15 10.715h-1.286V12H15zm1.286-1.286H15v1.286h1.286zm2.571 1.286h-1.285V12h1.285z"/><path fill="#8DDB2E" d="M16.286 17.143v-1.286H15v1.286h-1.286v-1.286H15v-2.571h-1.286V12H12.43v-1.286h1.285V9.43H12.43V8.143h1.285v1.286H15V7.286h1.286V6h-3.429L10.93 9.429 8.764 6h-3.62L9 12.214 5.143 18.43h3.545l2.24-3.858 1.93 3.858h4.714v-1.286zm-3.857-2.572v-1.285h-1.286V12l-1.286.005v-1.29h1.286V12h1.286v1.286h1.285v1.285z"/></g><defs><clipPath id="a"><path fill="#fff" d="M0 0h24v24H0z"/></clipPath></defs></svg>
